projects/vfh1/img/icons/city.svg

<svg viewBox="0 0 15 18" xmlns="http://www.w3.org/2000/svg">
<path fill="currentColor" d="M7.51904 9C8.00029 9 8.41242 8.8285 8.75542 8.4855C9.09783 8.14308 9.26904 7.73125 9.26904 7.25C9.26904 6.76875 9.09783 6.35663 8.75542 6.01363C8.41242 5.67121 8.00029 5.5 7.51904 5.5C7.03779 5.5 6.62596 5.67121 6.28354 6.01363C5.94054 6.35663 5.76904 6.76875 5.76904 7.25C5.76904 7.73125 5.94054 8.14308 6.28354 8.4855C6.62596 8.8285 7.03779 9 7.51904 9ZM7.51904 17.75C5.17113 15.7521 3.41763 13.8962 2.25854 12.1824C1.09888 10.4691 0.519043 8.88333 0.519043 7.425C0.519043 5.2375 1.22283 3.49479 2.63042 2.19687C4.03742 0.898958 5.66696 0.25 7.51904 0.25C9.37113 0.25 11.0007 0.898958 12.4077 2.19687C13.8153 3.49479 14.519 5.2375 14.519 7.425C14.519 8.88333 13.9395 10.4691 12.7804 12.1824C11.6208 13.8962 9.86696 15.7521 7.51904 17.75Z" />
</svg>

<svg viewBox="0 0 15 18" xmlns="http://www.w3.org/2000/svg"><path fill="currentColor" d="M7.519 9c.481 0 .893-.171 1.236-.514.343-.343.514-.755.514-1.236s-.171-.893-.514-1.236A1.687 1.687 0 007.52 5.5c-.481 0-.893.171-1.235.514A1.686 1.686 0 005.77 7.25c0 .481.172.893.515 1.236.342.342.754.514 1.235.514zm0 8.75c-2.348-1.998-4.101-3.854-5.26-5.568C1.099 10.47.519 8.883.519 7.425c0-2.188.704-3.93 2.111-5.228C4.037.899 5.667.25 7.52.25c1.852 0 3.482.649 4.889 1.947s2.111 3.04 2.111 5.228c0 1.458-.58 3.044-1.739 4.757-1.16 1.714-2.913 3.57-5.261 5.568z"/></svg>
